assets/icons/speedlimit_unknown.svg

<svg xmlns="http://www.w3.org/2000/svg" width="144" height="144" fill="none" viewBox="0 0 144 144"><circle cx="71.5" cy="72.5" r="62.5" fill="red"/><circle cx="71.5" cy="72.5" r="49.5" fill="#fff"/><path fill="#000" d="M67.6562 81q0-4.375.8438-6.9375.875-2.5938 3.0938-4.9375 2.3436-2.5937 3.125-4.25.7812-1.6563.7812-3.3438 0-5.2187-3.375-5.2187-1.5 0-2.5 1.4375t-1.0625 3.875h-8.8437q.0624-6.0626 3.375-9.4062 3.3437-3.3438 9.0312-3.3438 5.8125 0 9.0312 3.25 3.2188 3.2187 3.2188 9.0312 0 4.8126-3.9688 9.4376l-2.5937 2.9374Q76.5313 75.0625 76 76.7188q-.5313 1.625-.5938 4.2812zm-.8124 9.5625q0-2.125 1.3437-3.4687 1.375-1.3438 3.4687-1.3438 2.1564 0 3.5 1.375Q76.5 88.4688 76.5 90.5625q0 2.0625-1.3125 3.4375t-3.5313 1.375q-2.1875 0-3.5-1.375t-1.3124-3.4375"/></svg>

<svg width="144" height="144" viewBox="0 0 144 144" fill="none" xmlns="http://www.w3.org/2000/svg">
<circle cx="71.5" cy="72.5" r="62.5" fill="#FF0000"/>
<circle cx="71.5" cy="72.5" r="49.5" fill="white"/>
<path d="M67.6562 81C67.6562 78.0833 67.9375 75.7708 68.5 74.0625C69.0833 72.3333 70.1146 70.6875 71.5938 69.125C73.1562 67.3958 74.1979 65.9792 74.7188 64.875C75.2396 63.7708 75.5 62.6562 75.5 61.5312C75.5 58.0521 74.375 56.3125 72.125 56.3125C71.125 56.3125 70.2917 56.7917 69.625 57.75C68.9583 58.7083 68.6042 60 68.5625 61.625H59.7188C59.7604 57.5833 60.8854 54.4479 63.0938 52.2188C65.3229 49.9896 68.3333 48.875 72.125 48.875C76 48.875 79.0104 49.9583 81.1562 52.125C83.3021 54.2708 84.375 57.2812 84.375 61.1562C84.375 64.3646 83.0521 67.5104 80.4062 70.5938L77.8125 73.5312C76.9583 74.5521 76.3542 75.6146 76 76.7188C75.6458 77.8021 75.4479 79.2292 75.4062 81H67.6562ZM66.8438 90.5625C66.8438 89.1458 67.2917 87.9896 68.1875 87.0938C69.1042 86.1979 70.2604 85.75 71.6562 85.75C73.0938 85.75 74.2604 86.2083 75.1562 87.125C76.0521 88.0208 76.5 89.1667 76.5 90.5625C76.5 91.9375 76.0625 93.0833 75.1875 94C74.3125 94.9167 73.1354 95.375 71.6562 95.375C70.1979 95.375 69.0312 94.9167 68.1562 94C67.2812 93.0833 66.8438 91.9375 66.8438 90.5625Z" fill="black"/>
</svg>
